.local/share/icons/Gruvbox-Plus-Dark/mimetypes/scalable/application-x-stuffit.svg

<svg width="256" height="256" fill="none" version="1.1" viewBox="0 0 256 256" xmlns="http://www.w3.org/2000/svg">
  <path d="m102.8 17.85h-44.32c-8.91 0-16.08 7.173-16.08 16.08v193c0 8.911 7.173 16.08 16.08 16.08h144.8c8.911 0 16.08-7.173 16.08-16.08v-0.044-193c0-8.91-7.173-16.08-16.08-16.08h-100.5z" clip-rule="evenodd" fill="url(#paint0_linear)" fill-rule="evenodd"/>
  <path d="m102.8 17.85h-44.32c-8.91 0-16.08 7.173-16.08 16.08v45.57h177v-45.57c0-8.91-7.173-16.08-16.08-16.08h-100.5z" fill="#ebdbb2" opacity=".4"/>
  <path d="m130.9 110.1h-4.367v131h4.367v-131z" fill="#928374"/>
  <path d="m135.3 241.1h-4.366v-131h4.366v131z" fill="#ebdbb2"/>
  <path d="m122.2 116.7v8.732h8.733v-4.366h8.732v-4.366h-17.46zm8.733 8.732v4.366h-8.733v8.733h8.733v-4.367h8.732v-8.732h-8.732zm0 13.1v4.366h-8.733v8.732h8.733v-4.366h8.732v-8.732h-8.732zm0 13.1v4.366h-8.733v8.733h8.733v-4.366h8.732v-8.733h-8.732zm0 13.1v4.366h-8.733v8.732h8.733v-4.366h8.732v-8.732h-8.732zm0 13.1v4.367h-8.733v8.732h8.733v-4.366h8.732v-8.733h-8.732zm0 13.1v4.366h-8.733v8.733h8.733v-4.367h8.732v-8.732h-8.732zm0 13.1v4.366h-8.733v8.732h8.733v-4.366h8.732v-8.732h-8.732zm0 13.1v4.366h-8.733v8.733h8.733v-4.366h8.732v-8.733h-8.732zm0 13.1v4.366h-8.733v8.732h8.733v-4.366h8.732v-8.732h-8.732z" fill="url(#paint1_linear)"/>
  <path d="m130.9 118.9v2.183h8.732v-2.183h-8.732zm-8.733 4.366v2.183h8.733v-2.183h-8.733zm8.733 8.732v2.183h8.732v-2.183h-8.732zm-8.733 4.367v2.183h8.733v-2.183h-8.733zm8.733 8.732v2.183h8.732v-2.183h-8.732zm-8.733 4.366v2.183h8.733v-2.183h-8.733zm8.733 8.733v2.183h8.732v-2.183h-8.732zm-8.733 4.366v2.183h8.733v-2.183h-8.733zm8.733 8.732v2.183h8.732v-2.183h-8.732zm-8.733 4.366v2.183h8.733v-2.183h-8.733zm8.733 8.733v2.183h8.732v-2.183h-8.732zm-8.733 4.366v2.183h8.733v-2.183h-8.733zm8.733 8.732v2.183h8.732v-2.183h-8.732zm-8.733 4.366v2.184h8.733v-2.184h-8.733zm8.733 8.733v2.183h8.732v-2.183h-8.732zm-8.733 4.366v2.183h8.733v-2.183h-8.733zm8.733 8.732v2.184h8.732v-2.184h-8.732zm-8.733 4.367v2.183h8.733v-2.183h-8.733zm8.733 8.732v2.183h8.732v-2.183h-8.732zm-8.733 4.366v2.183h8.733v-2.183h-8.733z" fill="#282828" opacity=".4"/>
  <path d="m122.2 97.03c-4.837 0-8.732 3.894-8.732 8.732v21.83c0 4.838 3.895 8.733 8.732 8.733v17.46c0 2.419 1.948 4.367 4.366 4.367h8.733c2.419 0 4.366-1.948 4.366-4.367v-17.46c4.838 0 8.732-3.895 8.732-8.733v-21.83c0-4.838-3.894-8.732-8.732-8.732h-17.46zm4.366 48.03h8.733v8.732h-8.733v-8.732z" fill="#282828" opacity=".1"/>
  <path d="m126.6 110.1c-2.418 0-4.366 1.948-4.366 4.367v34.93c0 2.419 1.948 4.366 4.366 4.366h8.733c2.419 0 4.366-1.947 4.366-4.366v-34.93c0-2.419-1.947-4.367-4.366-4.367h-8.733zm0 30.56h8.733v8.732h-8.733v-8.732z" fill="url(#paint2_linear)"/>
  <path d="m139.7 92.66h-17.46c-4.823 0-8.732 3.91-8.732 8.732v21.83c0 4.823 3.909 8.732 8.732 8.732h17.46c4.823 0 8.732-3.909 8.732-8.732v-21.83c0-4.823-3.909-8.732-8.732-8.732z" fill="#3c3836"/>
  <path d="m139.7 88.3h-17.46c-4.823 0-8.732 3.91-8.732 8.732v21.83c0 4.823 3.909 8.732 8.732 8.732h17.46c4.823 0 8.732-3.909 8.732-8.732v-21.83c0-4.823-3.909-8.732-8.732-8.732z" fill="#665c54"/>
  <path d="m126.6 101.4c-2.418 0-4.366 1.947-4.366 4.366v39.3c0 2.419 1.948 4.366 4.366 4.366h8.733c2.419 0 4.366-1.947 4.366-4.366v-39.3c0-2.419-1.947-4.366-4.366-4.366h-8.733zm0 34.93h8.733v8.732h-8.733v-8.732z" fill="#ebdbb2"/>
  <path d="m135.3 110.1c0 2.412-1.955 4.367-4.366 4.367-2.412 0-4.367-1.955-4.367-4.367v-13.1c0-2.411 1.955-4.366 4.367-4.366 2.411 0 4.366 1.955 4.366 4.366v13.1z" fill="#665c54"/>
  <path d="m135.3 105.8c0 2.412-1.955 4.366-4.366 4.366-2.412 0-4.367-1.954-4.367-4.366v-8.732c0-2.411 1.955-4.366 4.367-4.366 2.411 0 4.366 1.955 4.366 4.366v8.732z" fill="#a89984"/>
  <path d="m99.44 63.48c5.52 0 9.84-3.04 9.84-8.44 0-5.92-5.04-7.68-9.12-9.12-2.92-0.96-5.36-1.8-5.36-3.84 0-1.92 1.48-3 4-3 2.64 0 4.24 1.24 4.96 2.88l4.32-1.44c-1-3.44-4.08-6-8.96-6-5.88 0-9.2 3.44-9.2 7.52 0 5.32 4.48 6.88 8.48 8.24 3.16 1.08 6 2.08 6 4.76 0 2.56-1.92 3.88-4.8 3.88s-5.12-1.76-6.28-4.32l-4.44 1.64c1.52 4.44 5.4 7.24 10.56 7.24zm15.65-0.48h4.8v-28h-4.8v28zm22.75-23.4h7.96v-4.6h-20.72v4.6h7.96v23.4h4.8v-23.4zm28.71 23.4h5.56l-8.84-14.48 8.28-13.52h-5.56l-5.48 9-5.48-9h-5.56l8.24 13.52-8.84 14.48h5.56l6.08-9.92 6.04 9.92z" fill="url(#paint3_linear)"/>
  <path d="m99.44 63.48c5.52 0 9.84-3.04 9.84-8.44 0-5.92-5.04-7.68-9.12-9.12-2.92-0.96-5.36-1.8-5.36-3.84 0-1.92 1.48-3 4-3 2.64 0 4.24 1.24 4.96 2.88l4.32-1.44c-1-3.44-4.08-6-8.96-6-5.88 0-9.2 3.44-9.2 7.52 0 5.32 4.48 6.88 8.48 8.24 3.16 1.08 6 2.08 6 4.76 0 2.56-1.92 3.88-4.8 3.88s-5.12-1.76-6.28-4.32l-4.44 1.64c1.52 4.44 5.4 7.24 10.56 7.24zm15.65-0.48h4.8v-28h-4.8v28zm22.75-23.4h7.96v-4.6h-20.72v4.6h7.96v23.4h4.8v-23.4zm28.71 23.4h5.56l-8.84-14.48 8.28-13.52h-5.56l-5.48 9-5.48-9h-5.56l8.24 13.52-8.84 14.48h5.56l6.08-9.92 6.04 9.92z" fill="#282828" fill-opacity=".3"/>
  <path d="m55.33 175.2h52v32h-52v-32z" fill="#ebdbb2"/>
  <path d="m59.34 183.2v16h7.998v-16h-7.998zm12 0v16h3.999v-16h-3.999zm7.998 0v16h8.001v-16h-8.001zm12 0v16h4.003v-16h-4.003zm8.001 0v16h3.999v-16h-3.999z" fill="#665c54"/>
  <path d="m151.3 179.2v3.999h48v-3.999h-48zm0 7.997v4.003h40v-4.003h-40zm0 8.002v3.999h48v-3.999h-48zm0 8.001v3.999h32v-3.999h-32z" fill="#ebdbb2" opacity=".3"/>
  <defs>
    <linearGradient id="paint0_linear" x1="42.41" x2="42.41" y1="17.85" y2="243" gradientUnits="userSpaceOnUse">
      <stop stop-color="#8ec07c" offset="1e-7"/>
      <stop stop-color="#689d6a" offset=".5"/>
      <stop stop-color="#427b58" offset="1"/>
    </linearGradient>
    <linearGradient id="paint1_linear" x1="145.3" x2="122.2" y1="215.5" y2="149.4" gradientUnits="userSpaceOnUse">
      <stop stop-color="#ebdbb2" offset="0"/>
      <stop stop-color="#ebdbb2" offset="1"/>
    </linearGradient>
    <linearGradient id="paint2_linear" x1="122.2" x2="139.7" y1="132" y2="132" gradientUnits="userSpaceOnUse">
      <stop stop-color="#a89984" offset="0"/>
      <stop stop-color="#ebdbb2" offset=".08333"/>
      <stop stop-color="#a89984" offset=".1667"/>
      <stop stop-color="#a89984" offset=".8333"/>
      <stop stop-color="#ebdbb2" offset=".9167"/>
      <stop stop-color="#a89984" offset="1"/>
    </linearGradient>
    <linearGradient id="paint3_linear" x1="42" x2="42" y1="29" y2="80" gradientUnits="userSpaceOnUse">
      <stop stop-color="#8ec07c" offset="1e-7"/>
      <stop stop-color="#689d6a" offset=".5"/>
      <stop stop-color="#427b58" offset="1"/>
    </linearGradient>
  </defs>
</svg>

<svg width="256" height="256" viewBox="0 0 256 256" fill="none" xmlns="http://www.w3.org/2000/svg">
<g clip-path="url(#clip0)">
<g opacity="0.4" filter="url(#filter0_f)">
<path fill-rule="evenodd" clip-rule="evenodd" d="M102.816 18.4131H58.497H58.4969C49.5865 18.4131 42.4131 25.5865 42.4131 34.497V227.503C42.4131 236.413 49.5865 243.587 58.4969 243.587H58.5858H203.252H203.34C212.251 243.587 219.424 236.413 219.424 227.503L219.424 227.459L219.424 34.497C219.424 25.5865 212.251 18.4131 203.34 18.4131H159.021H102.816Z" fill="#282828"/>
</g>
<path fill-rule="evenodd" clip-rule="evenodd" d="M102.816 17.8495H58.497H58.4969C49.5865 17.8495 42.4131 25.0229 42.4131 33.9333V226.939C42.4131 235.85 49.5865 243.023 58.4969 243.023H58.5858H203.252H203.34C212.251 243.023 219.424 235.85 219.424 226.939L219.424 226.895L219.424 33.9333C219.424 25.0229 212.251 17.8495 203.34 17.8495H159.021H102.816Z" fill="url(#paint0_linear)"/>
<path opacity="0.4" d="M102.816 17.8495H58.497C49.5866 17.8495 42.4131 25.0229 42.4131 33.9333V79.5H219.424V33.9333C219.424 25.0229 212.251 17.8495 203.34 17.8495H159.021H102.816Z" fill="#ebdbb2"/>
<path d="M130.919 110.127H126.552V241.113H130.919V110.127Z" fill="#928374"/>
<path d="M135.285 241.113H130.919V110.127H135.285V241.113Z" fill="#ebdbb2"/>
<path d="M122.186 116.677V125.409H130.919V121.043H139.651V116.677H130.919H122.186ZM130.919 125.409V129.775H122.186V138.508H130.919V134.141H139.651V125.409H130.919ZM130.919 138.508V142.874H122.186V151.606H130.919V147.24H139.651V138.508H130.919ZM130.919 151.606V155.972H122.186V164.705H130.919V160.339H139.651V155.972V151.606H130.919ZM130.919 164.705V169.071H122.186V177.803H130.919V173.437H139.651V164.705H130.919ZM130.919 177.803V182.17H122.186V190.902H130.919V186.536H139.651V177.803H130.919ZM130.919 190.902V195.268H122.186V204.001H130.919V199.634H139.651V195.268V190.902H130.919ZM130.919 204.001V208.367H122.186V217.099H130.919V212.733H139.651V204.001H130.919ZM130.919 217.099V221.465H122.186V230.198H130.919V225.832H139.651V217.099H130.919ZM130.919 230.198V234.564H122.186V243.296H130.919V238.93H139.651V234.564V230.198H130.919Z" fill="url(#paint1_linear)"/>
<path opacity="0.4" d="M130.919 118.86V121.043H139.651V118.86H130.919ZM122.186 123.226V125.409H130.919V123.226H122.186ZM130.919 131.958V134.141H139.651V131.958H130.919ZM122.186 136.325V138.508H130.919V136.325H122.186ZM130.919 145.057V147.24H139.651V145.057H130.919ZM122.186 149.423V151.606H130.919V149.423H122.186ZM130.919 158.156V160.339H139.651V158.156H130.919ZM122.186 162.522V164.705H130.919V162.522H122.186ZM130.919 171.254V173.437H139.651V171.254H130.919ZM122.186 175.62V177.803H130.919V175.62H122.186ZM130.919 184.353V186.536H139.651V184.353H130.919ZM122.186 188.719V190.902H130.919V188.719H122.186ZM130.919 197.451V199.634H139.651V197.451H130.919ZM122.186 201.817V204.001H130.919V201.817H122.186ZM130.919 210.55V212.733H139.651V210.55H130.919ZM122.186 214.916V217.099H130.919V214.916H122.186ZM130.919 223.648V225.832H139.651V223.648H130.919ZM122.186 228.015V230.198H130.919V228.015H122.186ZM130.919 236.747V238.93H139.651V236.747H130.919ZM122.186 241.113V243.296H130.919V241.113H122.186Z" fill="#282828"/>
<path opacity="0.1" d="M122.186 97.0288C117.349 97.0288 113.454 100.923 113.454 105.761V127.592C113.454 132.43 117.349 136.325 122.186 136.325V153.789C122.186 156.208 124.134 158.156 126.552 158.156H135.285C137.704 158.156 139.651 156.208 139.651 153.789V136.325C144.489 136.325 148.383 132.43 148.383 127.592V105.761C148.383 100.923 144.489 97.0288 139.651 97.0288H122.186ZM126.552 145.057H135.285V153.789H126.552V145.057Z" fill="#282828"/>
<path d="M126.552 110.127C124.134 110.127 122.186 112.075 122.186 114.494V149.423C122.186 151.842 124.134 153.789 126.552 153.789H135.285C137.704 153.789 139.651 151.842 139.651 149.423V114.494C139.651 112.075 137.704 110.127 135.285 110.127H126.552ZM126.552 140.691H135.285V149.423H126.552V140.691Z" fill="url(#paint2_linear)"/>
<path d="M139.651 92.6626H122.186C117.363 92.6626 113.454 96.5722 113.454 101.395V123.226C113.454 128.049 117.363 131.958 122.186 131.958H139.651C144.474 131.958 148.383 128.049 148.383 123.226V101.395C148.383 96.5722 144.474 92.6626 139.651 92.6626Z" fill="#3c3836"/>
<path d="M139.651 88.2964H122.186C117.363 88.2964 113.454 92.206 113.454 97.0288V118.86C113.454 123.683 117.363 127.592 122.186 127.592H139.651C144.474 127.592 148.383 123.683 148.383 118.86V97.0288C148.383 92.206 144.474 88.2964 139.651 88.2964Z" fill="#665c54"/>
<path d="M126.552 101.395C124.134 101.395 122.186 103.342 122.186 105.761V145.057C122.186 147.476 124.134 149.423 126.552 149.423H135.285C137.704 149.423 139.651 147.476 139.651 145.057V105.761C139.651 103.342 137.704 101.395 135.285 101.395H126.552ZM126.552 136.325H135.285V145.057H126.552V136.325Z" fill="#ebdbb2"/>
<path d="M135.285 110.127C135.285 112.539 133.33 114.494 130.919 114.494C128.507 114.494 126.552 112.539 126.552 110.127V97.0288C126.552 94.6174 128.507 92.6626 130.919 92.6626C133.33 92.6626 135.285 94.6174 135.285 97.0288V110.127Z" fill="#665c54"/>
<path d="M135.285 105.761C135.285 108.173 133.33 110.127 130.919 110.127C128.507 110.127 126.552 108.173 126.552 105.761V97.0288C126.552 94.6174 128.507 92.6626 130.919 92.6626C133.33 92.6626 135.285 94.6174 135.285 97.0288V105.761Z" fill="#a89984"/>
<path d="M99.442 63.48C104.962 63.48 109.282 60.44 109.282 55.04C109.282 49.12 104.242 47.36 100.162 45.92C97.242 44.96 94.802 44.12 94.802 42.08C94.802 40.16 96.282 39.08 98.802 39.08C101.442 39.08 103.042 40.32 103.762 41.96L108.082 40.52C107.082 37.08 104.002 34.52 99.122 34.52C93.242 34.52 89.922 37.96 89.922 42.04C89.922 47.36 94.402 48.92 98.402 50.28C101.562 51.36 104.402 52.36 104.402 55.04C104.402 57.6 102.482 58.92 99.602 58.92C96.722 58.92 94.482 57.16 93.322 54.6L88.882 56.24C90.402 60.68 94.282 63.48 99.442 63.48ZM115.096 63H119.896V35H115.096V63ZM137.848 39.6H145.808V35H125.088V39.6H133.048V63H137.848V39.6ZM166.562 63H172.122L163.282 48.52L171.562 35H166.002L160.522 44L155.042 35H149.482L157.722 48.52L148.882 63H154.442L160.522 53.08L166.562 63Z" fill="url(#paint3_linear)"/>
<path d="M99.442 63.48C104.962 63.48 109.282 60.44 109.282 55.04C109.282 49.12 104.242 47.36 100.162 45.92C97.242 44.96 94.802 44.12 94.802 42.08C94.802 40.16 96.282 39.08 98.802 39.08C101.442 39.08 103.042 40.32 103.762 41.96L108.082 40.52C107.082 37.08 104.002 34.52 99.122 34.52C93.242 34.52 89.922 37.96 89.922 42.04C89.922 47.36 94.402 48.92 98.402 50.28C101.562 51.36 104.402 52.36 104.402 55.04C104.402 57.6 102.482 58.92 99.602 58.92C96.722 58.92 94.482 57.16 93.322 54.6L88.882 56.24C90.402 60.68 94.282 63.48 99.442 63.48ZM115.096 63H119.896V35H115.096V63ZM137.848 39.6H145.808V35H125.088V39.6H133.048V63H137.848V39.6ZM166.562 63H172.122L163.282 48.52L171.562 35H166.002L160.522 44L155.042 35H149.482L157.722 48.52L148.882 63H154.442L160.522 53.08L166.562 63Z" fill="#282828" fill-opacity="0.3"/>
<path d="M55.3326 175.174H107.332V207.176H55.3326V175.174Z" fill="#ebdbb2"/>
<path d="M59.3351 183.176V199.175H67.3326V183.176H59.3351ZM71.3351 183.176V199.175H75.3339V183.176H71.3351ZM79.3327 183.176V199.175H87.334V183.176H79.3327ZM91.3327 183.176V199.175H95.3353V183.176H91.3327ZM99.334 183.176V199.175H103.333V183.176H99.334Z" fill="#665c54"/>
<path opacity="0.3" d="M151.333 179.177V183.176H199.333V179.177H151.333ZM151.333 187.174V191.177H191.336V187.174H151.333ZM151.333 195.176V199.175H199.333V195.176H151.333ZM151.333 203.177V207.176H183.334V203.177H151.333Z" fill="#ebdbb2"/>
</g>
<defs>
<filter id="filter0_f" x="27.2909" y="3.29092" width="207.255" height="255.418" filterUnits="userSpaceOnUse" color-interpolation-filters="sRGB">
<feFlood flood-opacity="0" result="BackgroundImageFix"/>
<feBlend mode="normal" in="SourceGraphic" in2="BackgroundImageFix" result="shape"/>
<feGaussianBlur stdDeviation="7.5611" result="effect1_foregroundBlur"/>
</filter>
<linearGradient id="paint0_linear" x1="42.4131" y1="17.8495" x2="42.4131" y2="243.023" gradientUnits="userSpaceOnUse">
<stop offset="1e-07" stop-color="#8ec07c"/>
<stop offset="0.5" stop-color="#689d6a"/>
<stop offset="1" stop-color="#427b58"/>
</linearGradient>
<linearGradient id="paint1_linear" x1="145.297" y1="215.473" x2="122.186" y2="149.423" gradientUnits="userSpaceOnUse">
<stop stop-color="#ebdbb2"/>
<stop offset="1" stop-color="#ebdbb2"/>
</linearGradient>
<linearGradient id="paint2_linear" x1="122.186" y1="131.958" x2="139.651" y2="131.958" gradientUnits="userSpaceOnUse">
<stop stop-color="#a89984"/>
<stop offset="0.083333" stop-color="#ebdbb2"/>
<stop offset="0.16667" stop-color="#a89984"/>
<stop offset="0.83333" stop-color="#a89984"/>
<stop offset="0.91667" stop-color="#ebdbb2"/>
<stop offset="1" stop-color="#a89984"/>
</linearGradient>
<linearGradient id="paint3_linear" x1="42" y1="29" x2="42" y2="80" gradientUnits="userSpaceOnUse">
<stop offset="1e-07" stop-color="#8ec07c"/>
<stop offset="0.5" stop-color="#689d6a"/>
<stop offset="1" stop-color="#427b58"/>
</linearGradient>
<clipPath id="clip0">
<rect width="256" height="256" fill="#ebdbb2"/>
</clipPath>
</defs>
</svg>
